modules/zondicons/icons/tools.svg

<?xml version="1.0" encoding="UTF-8" standalone="no"?>
<svg width="20px" height="20px" viewBox="0 0 20 20" version="1.1" xmlns="http://www.w3.org/2000/svg" xmlns:xlink="http://www.w3.org/1999/xlink">
    <!-- Generator: Sketch 3.7.2 (28276) - http://www.bohemiancoding.com/sketch -->
    <title>tools</title>
    <desc>Created with Sketch.</desc>
    <defs></defs>
    <g id="Page-1" stroke="none" stroke-width="1" fill="none" fill-rule="evenodd">
        <g id="tools" fill="#000000">
            <path d="M14,0.535128781 C12.8043973,1.22674762 12,2.51943529 12,4 C12,5.48056471 12.8043973,6.77325238 14,7.46487122 L14,18.0081158 C14,19.1066027 14.8954305,20 16,20 C17.1122704,20 18,19.1082031 18,18.0081158 L18,7.46487122 C19.1956027,6.77325238 20,5.48056471 20,4 C20,2.51943529 19.1956027,1.22674762 18,0.535128781 L18,4 L16,4 L14,4 L14,0.535128781 Z M6,10.2658017 L6,5 L4,5 L4,10.2655382 C3.40026186,10.6107915 3,11.2580637 3,11.999615 L3,18.000385 C3,19.1125667 3.8954305,20 5,20 C6.11227036,20 7,19.1047419 7,18.000385 L7,11.999615 C7,11.2542309 6.59780137,10.6097967 6,10.2658017 Z M7,3 L8.00003885,3 C8.00494964,3.56153155 8.45076613,4 9,4 L10,4 L10,0 L9,0 C8.4469837,0 8.00498204,0.446855318 8.00004182,1 L7,1 L7,0.998956561 C7,0.442660332 6.54809015,0 5.9906311,0 L4.0093689,0 C3.44335318,0 2.68169321,0.318306794 2.28904188,0.710958123 L0,3 L0,5 L2.16433275,3.5571115 C2.63214111,3.24523926 3.20028655,3.4005731 3.44735253,3.89470506 L4,5 L6,5 L7,3 Z" id="Combined-Shape"></path>
        </g>
    </g>
</svg>

<svg width="20" height="20" viewBox="0 0 20 20" xmlns="http://www.w3.org/2000/svg"><path d="M14 .535A3.998 3.998 0 0 0 12 4c0 1.48.804 2.773 2 3.465v10.543c0 1.099.895 1.992 2 1.992 1.112 0 2-.892 2-1.992V7.465A3.998 3.998 0 0 0 20 4c0-1.48-.804-2.773-2-3.465V4h-4V.535zm-8 9.73V5H4v5.266c-.6.345-1 .992-1 1.734v6c0 1.113.895 2 2 2 1.112 0 2-.895 2-2v-6c0-.746-.402-1.39-1-1.734zM7 3h1a1 1 0 0 0 1 1h1V0H9c-.553 0-.995.447-1 1H7V.999C7 .443 6.548 0 5.99 0H4.01c-.567 0-1.328.318-1.721.711L0 3v2l2.164-1.443c.468-.312 1.036-.156 1.283.338L4 5h2l1-2z" fill="#000" fill-rule="evenodd"/></svg>
